elementary-add/apps/48/battleblock-theater.svg

<?xml version="1.0" encoding="UTF-8" standalone="no"?>
<!-- Created with Inkscape (http://www.inkscape.org/) -->

<svg
   xmlns:dc="http://purl.org/dc/elements/1.1/"
   xmlns:cc="http://creativecommons.org/ns#"
   xmlns:rdf="http://www.w3.org/1999/02/22-rdf-syntax-ns#"
   xmlns:svg="http://www.w3.org/2000/svg"
   xmlns="http://www.w3.org/2000/svg"
   xmlns:xlink="http://www.w3.org/1999/xlink"
   xmlns:sodipodi="http://sodipodi.sourceforge.net/DTD/sodipodi-0.dtd"
   xmlns:inkscape="http://www.inkscape.org/namespaces/inkscape"
   version="1.1"
   width="48"
   height="48"
   id="svg3111"
   inkscape:version="0.91 r"
   sodipodi:docname="battleblock-theater.svg">
  <sodipodi:namedview
     pagecolor="#ffffff"
     bordercolor="#666666"
     borderopacity="1"
     objecttolerance="10"
     gridtolerance="10"
     guidetolerance="10"
     inkscape:pageopacity="0"
     inkscape:pageshadow="2"
     inkscape:window-width="1600"
     inkscape:window-height="845"
     id="namedview45"
     showgrid="false"
     inkscape:zoom="1"
     inkscape:cx="29.648982"
     inkscape:cy="20.695309"
     inkscape:window-x="0"
     inkscape:window-y="30"
     inkscape:window-maximized="1"
     inkscape:current-layer="svg3111" />
  <defs
     id="defs3113">
    <linearGradient
       x1="167.98311"
       y1="6.8325434"
       x2="167.98311"
       y2="61.692036"
       id="linearGradient3012"
       xlink:href="#linearGradient5803-1"
       gradientUnits="userSpaceOnUse"
       gradientTransform="matrix(0.71090703,0,0,0.71090703,-91.211796,1.1429431)" />
    <linearGradient
       id="linearGradient5803-1">
      <stop
         id="stop5805-6"
         style="stop-color:#fff5ef;stop-opacity:1"
         offset="0" />
      <stop
         id="stop5807-3"
         style="stop-color:#fef8dd;stop-opacity:1"
         offset="1" />
    </linearGradient>
    <linearGradient
       x1="23.99999"
       y1="4.999989"
       x2="23.99999"
       y2="43"
       id="linearGradient3028"
       xlink:href="#linearGradient3924-1"
       gradientUnits="userSpaceOnUse"
       gradientTransform="translate(4e-6,1.0000062)" />
    <linearGradient
       id="linearGradient3924-1">
      <stop
         id="stop3926-3"
         style="stop-color:#ffffff;stop-opacity:1"
         offset="0" />
      <stop
         id="stop3928-91"
         style="stop-color:#ffffff;stop-opacity:0.23529412"
         offset="0.06316455" />
      <stop
         id="stop3930-6"
         style="stop-color:#ffffff;stop-opacity:0.15686275"
         offset="0.95056331" />
      <stop
         id="stop3932-6"
         style="stop-color:#ffffff;stop-opacity:0.39215687"
         offset="1" />
    </linearGradient>
    <radialGradient
       cx="6.7304144"
       cy="9.9571075"
       r="12.671875"
       fx="6.2001843"
       fy="9.9571075"
       id="radialGradient3031"
       xlink:href="#linearGradient2867-449-88-871-390-598-476-591-434-148-57-177-8-3-3-6-4-8-8-8"
       gradientUnits="userSpaceOnUse"
       gradientTransform="matrix(0,9.4975523,-11.65996,0,140.93055,-79.160978)" />
    <linearGradient
       id="linearGradient2867-449-88-871-390-598-476-591-434-148-57-177-8-3-3-6-4-8-8-8">
      <stop
         id="stop3750-1-0-7-6-6-1-3-9"
         style="stop-color:#e09cd5;stop-opacity:1"
         offset="0" />
      <stop
         id="stop3752-3-7-4-0-32-8-923-0"
         style="stop-color:#e09cda;stop-opacity:1"
         offset="0.26238" />
      <stop
         id="stop3754-1-8-5-2-7-6-7-1"
         style="stop-color:#b764bd;stop-opacity:1"
         offset="0.704952" />
      <stop
         id="stop3756-1-6-2-6-6-1-96-6"
         style="stop-color:#8a4185;stop-opacity:1"
         offset="1" />
    </linearGradient>
    <radialGradient
       cx="4.9929786"
       cy="43.5"
       r="2.5"
       fx="4.9929786"
       fy="43.5"
       id="radialGradient3013"
       xlink:href="#linearGradient3688-166-749"
       gradientUnits="userSpaceOnUse"
       gradientTransform="matrix(2.003784,0,0,1.4,27.98813,-17.4)" />
    <linearGradient
       id="linearGradient3688-166-749">
      <stop
         id="stop2883"
         style="stop-color:#181818;stop-opacity:1"
         offset="0" />
      <stop
         id="stop2885"
         style="stop-color:#181818;stop-opacity:0"
         offset="1" />
    </linearGradient>
    <radialGradient
       cx="4.9929786"
       cy="43.5"
       r="2.5"
       fx="4.9929786"
       fy="43.5"
       id="radialGradient3015"
       xlink:href="#linearGradient3688-464-309"
       gradientUnits="userSpaceOnUse"
       gradientTransform="matrix(2.003784,0,0,1.4,-20.01187,-104.4)" />
    <linearGradient
       id="linearGradient3688-464-309">
      <stop
         id="stop2889"
         style="stop-color:#181818;stop-opacity:1"
         offset="0" />
      <stop
         id="stop2891"
         style="stop-color:#181818;stop-opacity:0"
         offset="1" />
    </linearGradient>
    <linearGradient
       id="linearGradient3702-501-757">
      <stop
         id="stop2895"
         style="stop-color:#181818;stop-opacity:0"
         offset="0" />
      <stop
         id="stop2897"
         style="stop-color:#181818;stop-opacity:1"
         offset="0.5" />
      <stop
         id="stop2899"
         style="stop-color:#181818;stop-opacity:0"
         offset="1" />
    </linearGradient>
    <linearGradient
       x1="25.058096"
       y1="47.027729"
       x2="25.058096"
       y2="39.999443"
       id="linearGradient3109"
       xlink:href="#linearGradient3702-501-757"
       gradientUnits="userSpaceOnUse" />
  </defs>
  <metadata
     id="metadata3116">
    <rdf:RDF>
      <cc:Work
         rdf:about="">
        <dc:format>image/svg+xml</dc:format>
        <dc:type
           rdf:resource="http://purl.org/dc/dcmitype/StillImage" />
        <dc:title />
      </cc:Work>
    </rdf:RDF>
  </metadata>
  <g
     style="opacity:0.6"
     id="g3712-5"
     transform="matrix(1.1578952,0,0,0.6428571,-3.789476,16.035716)">
    <rect
       style="fill:url(#radialGradient3013);fill-opacity:1;stroke:none"
       id="rect2801-3"
       y="40"
       x="38"
       height="7"
       width="5" />
    <rect
       style="fill:url(#radialGradient3015);fill-opacity:1;stroke:none"
       id="rect3696-6"
       transform="scale(-1,-1)"
       y="-47"
       x="-10"
       height="7"
       width="5" />
    <rect
       style="fill:url(#linearGradient3109);fill-opacity:1;stroke:none"
       id="rect3700-4"
       y="40"
       x="10"
       height="7.0000005"
       width="28" />
  </g>
  <rect
     style="color:#000000;display:inline;overflow:visible;visibility:visible;fill:url(#radialGradient3031);fill-opacity:1;fill-rule:nonzero;stroke:none;stroke-width:0.99999994;marker:none;enable-background:accumulate"
     id="rect5505-21"
     y="5.4999952"
     x="4.5000124"
     ry="2"
     rx="2"
     height="39"
     width="39" />
  <rect
     style="opacity:0.5;fill:none;stroke:url(#linearGradient3028);stroke-width:1;stroke-linecap:round;stroke-linejoin:round;stroke-miterlimit:4;stroke-dasharray:none;stroke-dashoffset:0;stroke-opacity:1"
     id="rect6741"
     y="6.4999952"
     x="5.5000124"
     ry="1"
     rx="1"
     height="37"
     width="37" />
  <rect
     style="color:#000000;display:inline;overflow:visible;visibility:visible;opacity:0.4;fill:none;stroke:#5d0064;stroke-width:1;stroke-linecap:round;stroke-linejoin:round;stroke-miterlimit:4;stroke-dasharray:none;stroke-dashoffset:0;stroke-opacity:1;marker:none;enable-background:accumulate"
     id="rect5505-21-3-2"
     y="5.4999952"
     x="4.5000124"
     ry="2"
     rx="2"
     height="39"
     width="39" />
  <g
     id="g4328"
     transform="translate(-0.5,-1e-7)">
    <g
       transform="matrix(1,0,0,1.1666667,33,-12.479166)"
       style="fill:#504c16;fill-opacity:1"
       id="g3072">
      <rect
         style="fill:#504c16;fill-opacity:1;fill-rule:nonzero;stroke:none"
         id="rect3062"
         width="12"
         height="0.85714251"
         x="-14"
         y="26.982141" />
      <path
         style="fill:#504c16;fill-opacity:1;fill-rule:nonzero;stroke:none"
         d="m -13,20.124999 10,0 L -4,27 l -8,0 z"
         id="rect3064"
         inkscape:connector-curvature="0"
         sodipodi:nodetypes="ccccc" />
    </g>
    <path
       sodipodi:nodetypes="ccccc"
       inkscape:connector-curvature="0"
       id="rect3067"
       d="m 20.835425,18.000001 8.301721,0 -0.137146,1 -8,0 z"
       style="fill:#9f992b;fill-opacity:1;fill-rule:nonzero;stroke:none" />
    <path
       sodipodi:nodetypes="ccccccccc"
       inkscape:connector-curvature="0"
       id="path3069"
       d="m 23.5,19.000001 0,-2 3,0 0,2 -1,0 0,-1 -1,0.02743 0,0.97257 z"
       style="fill:#ffcc00;stroke:none" />
    <rect
       y="20"
       x="17.5"
       height="14"
       width="14.999999"
       id="rect3060"
       style="fill:#f9f9f9;fill-opacity:1;fill-rule:nonzero;stroke:none" />
    <rect
       y="20"
       x="31.346155"
       height="14"
       width="1.1538461"
       id="rect3203"
       style="opacity:0.1;fill:#000000;fill-opacity:1;fill-rule:nonzero;stroke:none" />
    <path
       sodipodi:nodetypes="ccc"
       inkscape:connector-curvature="0"
       id="path3083"
       d="m 19,32 12,0 c -2.628133,-0.484734 -8.917212,-1.046081 -12,0 z"
       style="color:#000000;font-style:normal;font-variant:normal;font-weight:normal;font-stretch:normal;font-size:medium;line-height:normal;font-family:Sans;-inkscape-font-specification:Sans;text-indent:0;text-align:start;text-decoration:none;text-decoration-line:none;letter-spacing:normal;word-spacing:normal;text-transform:none;direction:ltr;block-progression:tb;writing-mode:lr-tb;baseline-shift:baseline;text-anchor:start;display:inline;overflow:visible;visibility:visible;fill:#4d4d4d;fill-opacity:1;stroke:none;stroke-width:1px;marker:none;enable-background:accumulate" />
    <ellipse
       ry="0.93749994"
       rx="0.93749988"
       cy="29.312498"
       cx="20.312502"
       id="path3087"
       style="fill:#333333;fill-opacity:1;fill-rule:nonzero;stroke:none" />
    <ellipse
       ry="0.93749994"
       rx="0.93749988"
       cy="29.312498"
       cx="29.6875"
       style="fill:#333333;fill-opacity:1;fill-rule:nonzero;stroke:none"
       id="path3089" />
    <path
       sodipodi:nodetypes="ccccc"
       inkscape:connector-curvature="0"
       id="rect3229"
       d="M 18.863636,34 31.136364,34 32.5,40 17.5,40 Z"
       style="fill:#504c16;fill-opacity:1;fill-rule:nonzero;stroke:none" />
    <path
       sodipodi:nodetypes="cccc"
       inkscape:connector-curvature="0"
       id="path3215"
       d="M 22.272727,34 18.863636,34 25,37 Z"
       style="fill:#9f992b;fill-opacity:1;stroke:none" />
    <path
       style="fill:#9f992b;fill-opacity:1;stroke:none"
       d="M 27.727273,34 31.136364,34 25,37 Z"
       id="path3217"
       inkscape:connector-curvature="0"
       sodipodi:nodetypes="cccc" />
    <path
       sodipodi:nodetypes="ccccc"
       inkscape:connector-curvature="0"
       id="path3223"
       d="m 25,37 0,0 2.727273,-3 -5.454546,0 z"
       style="fill:#e9c6af;stroke:none" />
    <path
       sodipodi:nodetypes="ccc"
       inkscape:connector-curvature="0"
       id="path3225"
       d="M 23.636364,34 C 25,36.25 25,36.25 26.363636,34 Z"
       style="fill:#ff0000;stroke:none" />
    <path
       sodipodi:nodetypes="cccc"
       inkscape:connector-curvature="0"
       id="path3231"
       d="m 21.590909,34.75 -1.363636,1.5 3.409091,0 z"
       style="fill:#9f992b;fill-opacity:1;stroke:none" />
    <path
       sodipodi:nodetypes="cccc"
       style="fill:#9f992b;fill-opacity:1;stroke:none"
       d="m 28.409091,34.75 1.363636,1.5 -3.409091,0 z"
       id="path3233"
       inkscape:connector-curvature="0" />
  </g>
</svg>

<?xml version="1.0" encoding="UTF-8" standalone="no"?>
<!-- Created with Inkscape (http://www.inkscape.org/) -->
<svg id="svg3111" xmlns:rdf="http://www.w3.org/1999/02/22-rdf-syntax-ns#" xmlns="http://www.w3.org/2000/svg" height="48" width="48" version="1.1" xmlns:cc="http://creativecommons.org/ns#" xmlns:xlink="http://www.w3.org/1999/xlink" xmlns:dc="http://purl.org/dc/elements/1.1/">
 <defs id="defs3113">
  <linearGradient id="linearGradient3028" y2="43" gradientUnits="userSpaceOnUse" x2="24" gradientTransform="translate(.000004 1)" y1="5" x1="24">
   <stop id="stop3926-3" stop-color="#fff" offset="0"/>
   <stop id="stop3928-91" stop-color="#fff" stop-opacity=".23529" offset=".063165"/>
   <stop id="stop3930-6" stop-color="#fff" stop-opacity=".15686" offset=".95056"/>
   <stop id="stop3932-6" stop-color="#fff" stop-opacity=".39216" offset="1"/>
  </linearGradient>
  <radialGradient id="radialGradient3031" fx="6.2002" gradientUnits="userSpaceOnUse" cy="9.9571" cx="6.7304" gradientTransform="matrix(0 9.4976 -11.66 0 140.93 -79.161)" r="12.672">
   <stop id="stop3750-1-0-7-6-6-1-3-9" stop-color="#e09cd5" offset="0"/>
   <stop id="stop3752-3-7-4-0-32-8-923-0" stop-color="#e09cda" offset=".26238"/>
   <stop id="stop3754-1-8-5-2-7-6-7-1" stop-color="#b764bd" offset=".70495"/>
   <stop id="stop3756-1-6-2-6-6-1-96-6" stop-color="#8a4185" offset="1"/>
  </radialGradient>
  <radialGradient id="radialGradient3013" gradientUnits="userSpaceOnUse" cy="43.5" cx="4.993" gradientTransform="matrix(2.0038 0 0 1.4 27.988 -17.4)" r="2.5">
   <stop id="stop2883" stop-color="#181818" offset="0"/>
   <stop id="stop2885" stop-color="#181818" stop-opacity="0" offset="1"/>
  </radialGradient>
  <radialGradient id="radialGradient3015" gradientUnits="userSpaceOnUse" cy="43.5" cx="4.993" gradientTransform="matrix(2.0038 0 0 1.4 -20.012 -104.4)" r="2.5">
   <stop id="stop2889" stop-color="#181818" offset="0"/>
   <stop id="stop2891" stop-color="#181818" stop-opacity="0" offset="1"/>
  </radialGradient>
  <linearGradient id="linearGradient3109" y2="39.999" gradientUnits="userSpaceOnUse" x2="25.058" y1="47.028" x1="25.058">
   <stop id="stop2895" stop-color="#181818" stop-opacity="0" offset="0"/>
   <stop id="stop2897" stop-color="#181818" offset=".5"/>
   <stop id="stop2899" stop-color="#181818" stop-opacity="0" offset="1"/>
  </linearGradient>
 </defs>
 <metadata id="metadata3116">
  <rdf:RDF>
   <cc:Work rdf:about="">
    <dc:format>image/svg+xml</dc:format>
    <dc:type rdf:resource="http://purl.org/dc/dcmitype/StillImage"/>
    <dc:title/>
   </cc:Work>
  </rdf:RDF>
 </metadata>
 <g id="g3712-5" opacity=".6" transform="matrix(1.1579 0 0 .64286 -3.7895 16.036)">
  <rect id="rect2801-3" height="7" width="5" y="40" x="38" fill="url(#radialGradient3013)"/>
  <rect id="rect3696-6" transform="scale(-1)" height="7" width="5" y="-47" x="-10" fill="url(#radialGradient3015)"/>
  <rect id="rect3700-4" height="7" width="28" y="40" x="10" fill="url(#linearGradient3109)"/>
 </g>
 <rect id="rect5505-21" style="color:#000000" rx="2" ry="2" height="39" width="39" y="5.5" x="4.5" fill="url(#radialGradient3031)"/>
 <rect id="rect6741" opacity=".5" stroke-linejoin="round" rx="1" ry="1" height="37" width="37" stroke="url(#linearGradient3028)" stroke-linecap="round" y="6.5" x="5.5" fill="none"/>
 <rect id="rect5505-21-3-2" opacity=".4" stroke-linejoin="round" style="color:#000000" rx="2" ry="2" height="39" width="39" stroke="#5d0064" stroke-linecap="round" y="5.5" x="4.5" fill="none"/>
 <g id="g4328" transform="translate(-.5 -1e-7)">
  <g id="g3072" transform="matrix(1 0 0 1.1667 33 -12.479)" fill="#504c16">
   <rect id="rect3062" height=".85714" width="12" y="26.982" x="-14"/>
   <path id="rect3064" d="m-13 20.125h10l-1 6.875h-8z"/>
  </g>
  <path id="rect3067" d="m20.835 18h8.3017l-0.13715 1h-8z" fill="#9f992b"/>
  <path id="path3069" d="m23.5 19v-2h3v2h-1v-1l-1 0.02743v0.97257z" fill="#fc0"/>
  <rect id="rect3060" height="14" width="15" y="20" x="17.5" fill="#f9f9f9"/>
  <rect id="rect3203" opacity=".1" height="14" width="1.1538" y="20" x="31.346"/>
  <path id="path3083" style="color:#000000;text-indent:0;block-progression:tb;text-decoration-line:none;text-transform:none" d="m19 32h12c-2.6281-0.48473-8.9172-1.0461-12 0z" fill="#4d4d4d"/>
  <ellipse id="path3087" rx=".93750" ry=".93750" cy="29.312" cx="20.313" fill="#333"/>
  <ellipse id="path3089" rx=".93750" ry=".93750" cy="29.312" cx="29.688" fill="#333"/>
  <path id="rect3229" d="m18.864 34h12.272l1.364 6h-15z" fill="#504c16"/>
  <path id="path3215" d="m22.273 34h-3.409l6.136 3z" fill="#9f992b"/>
  <path id="path3217" d="m27.727 34h3.409l-6.136 3z" fill="#9f992b"/>
  <path id="path3223" d="m25 37 2.7273-3h-5.4545z" fill="#e9c6af"/>
  <path id="path3225" d="m23.636 34c1.364 2.25 1.364 2.25 2.728 0z" fill="#f00"/>
  <path id="path3231" d="m21.591 34.75-1.3636 1.5h3.4091z" fill="#9f992b"/>
  <path id="path3233" d="m28.409 34.75 1.3636 1.5h-3.4091z" fill="#9f992b"/>
 </g>
</svg>
